public/avatar/hat/28.svg

<svg xmlns:xlink="http://www.w3.org/1999/xlink" height="92.9" width="100.7" xmlns="http://www.w3.org/2000/svg"><use height="28.55" transform="translate(12.9 44.05)" width="50.1" xlink:href="#a"/><defs><g id="a"><path d="M3.4-2.25q-1.05.55-1.6 1.7L5.9.1l2.8.85 3.35.3q.95 1.1 2.35 1.7 1.7.7 3.05.55-1.05.7-2.55.8l-3.8-.2-3.6-.85-3.6-1.4Q2.2 1.15 0 .75q.9 5.8-2 7.5l-3.2 1.7q.95-.9 1.1-1.85h.05q1.2-1.3 1.3-3.3.05-.75-.5-1.05Q-5.15 2.6-5.4.6-8 2.15-6.55 4.05l.2 1.05-.9.4q-1.9.7-3.85.6-1.95-.15-3.65-1l-1.55-1.15q1.85-3.3 4.95-5.1Q-6.05-4.2-.2-1.9q.9-1.7-1.6-3.3 4.2-.1 5.2 2.95m11.95 9.5.1.1.15.05.2.15.1.05.9.5q1 .4 1.5 1.9l-2 .8-3.5.25-1.7-3.25 2.9.35q1.45-.1 1.35-.9m3.5 6.1.05.1q.65 1.5 2.55 1.4l1.4-.2Q21.4 17.4 19.5 17.8l1.9 1.5-1.5.25-4.25.5-.7-3.45-.75-2.4q1.85-1.25 3.9-1.25.55 0 .75.4M-7.25 8.3q-.7 1.15-1.85 2.1-1.5 1.25-3.4 1.65l-.1.05q-.75-.7-1.4-.7l-3.7.3q.35-1 .25-2.25l-.05-.2q1.9-1.15 3.9-1.35 1.9-.15 3.8-.05 1.35.05 2.55.45m-6.2 4-1.25 2.95q-.65 1.2-2 1.7-1.75.7-3.7.7-1.9 0-3.45-.85l-.7-1.4-.7-1.85 3.1 1.55 3.2-.15q.75-.35 1.2-.35l1.65-1.25 2.65-1.05" fill="#c90" fill-rule="evenodd" transform="translate(25.75 5.7)"/><path d="M3.4-2.25q4.65-1.6 7.65 2.15l1 1.35L8.7.95 5.9.1 1.8-.55q.55-1.15 1.6-1.7M18.3 10l.3 1.9q0 .8.25 1.45-.2-.4-.75-.4-2.05 0-3.9 1.25l-1.4-3.15 3.5-.25 2-.8M-6.35 5.1q.05 1.3-.55 2.5l-.35.7q-1.2-.4-2.55-.45-1.9-.1-3.8.05-2 .2-3.9 1.35-.2-2.65 1.2-5.3l1.55 1.15q1.7.85 3.65 1 1.95.1 3.85-.6l.9-.4" fill="#febe01" fill-rule="evenodd" transform="translate(25.75 5.7)"/><path d="M17.45 3.5Q18.95 3.3 20 2l-.9 1.9q-1.2 2.55-3.65 3.35h-.1q.1.8-1.35.9l-2.9-.35-.1-.15-.6-.1L8.1 7Q3.25 5.45 0 .75q2.2.4 3.9 1.1l3.6 1.4 3.6.85 3.8.2q1.5-.1 2.55-.8m-1.65 4 .1.1-.1-.05V7.5m7.05 7.15q.85-.25 1-.75-.1 1.95-1.05 3.25-1.1 1.4-3.3.65 1.9-.4 3.35-3.15M21.4 19.3l1.35.9q-2.95 1.85-6.95 1.7l-.15-1.85 4.25-.5 1.5-.25M-4.1 8.1q.25-1.6-1.6-3.35l-.85-.7Q-8 2.15-5.4.6q.25 2 2.15 3.15.55.3.5 1.05-.1 2-1.3 3.3h-.05m-8.5 4-.85.2-2.65 1.05-1.65 1.25q-.45 0-1.2.35l-3.2.15q3.55-1.05 4.45-3.4l3.7-.3q.65 0 1.4.7m-2.1 3.15q-1 2.85-1.55 6.25-3.4 2.25-7.1-1.6 1.2.3 2.75-.55-2.15-.95-3.25-2.55 1.55.85 3.45.85 1.95 0 3.7-.7 1.35-.5 2-1.7" fill="#a97e01" fill-rule="evenodd" transform="translate(25.75 5.7)"/><path d="m18.85 13.35.05.1M11.1 7.8l-.7-.25" fill="none" stroke="#396" stroke-linecap="round" stroke-linejoin="round" transform="translate(25.75 5.7)"/><path d="m12.05 1.25-1-1.35q-3-3.75-7.65-2.15-1-3.05-5.2-2.95Q.7-3.6-.2-1.9q-5.85-2.3-11.15.75-3.1 1.8-4.95 5.1-1.4 2.65-1.2 5.3l.05.2q.1 1.25-.25 2.25-.9 2.35-4.45 3.4l-3.1-1.55.7 1.85.7 1.4q1.1 1.6 3.25 2.55-1.55.85-2.75.55 3.7 3.85 7.1 1.6.55-3.4 1.55-6.25l1.25-2.95-2.65 1.05-1.65 1.25m29.8-13.35q.95 1.1 2.35 1.7 1.7.7 3.05.55Q18.95 3.3 20 2l-.9 1.9q-1.2 2.55-3.65 3.35h-.1l.1.1.15.05.2.1.1.1.9.5q1 .4 1.5 1.9l.3 1.9q0 .8.25 1.45m.05.1q.65 1.5 2.55 1.4l1.4-.2q.85-.25 1-.75-.1 1.95-1.05 3.25-1.1 1.4-3.3.65l1.9 1.5 1.35.9q-2.95 1.85-6.95 1.7l-.15-1.85-.7-3.45-.75-2.4-1.4-3.15-1.7-3.25-.1-.15-.6-.1L8.1 7Q3.25 5.45 0 .75q.9 5.8-2 7.5l-3.2 1.7q.95-.9 1.1-1.85.25-1.6-1.6-3.35l-.85-.7.2 1.05q.05 1.3-.55 2.5l-.35.7q-.7 1.15-1.85 2.1-1.5 1.25-3.4 1.65l-.1.05-.85.2M15.6 7.4l.2.15.1.05" fill="none" stroke="#ac7900" stroke-linecap="round" stroke-linejoin="round" transform="translate(25.75 5.7)"/></g></defs></svg>

<?xml version="1.0" encoding="UTF-8" standalone="no"?>
<svg xmlns:xlink="http://www.w3.org/1999/xlink" height="92.9px" width="100.7px" xmlns="http://www.w3.org/2000/svg">
  <g transform="matrix(1.0, 0.0, 0.0, 1.0, 38.65, 49.75)">
    <use height="28.55" transform="matrix(1.0, 0.0, 0.0, 1.0, -25.75, -5.7)" width="50.1" xlink:href="#shape0"/>
  </g>
  <defs>
    <g id="shape0" transform="matrix(1.0, 0.0, 0.0, 1.0, 25.75, 5.7)">
      <path d="M3.4 -2.25 Q2.35 -1.7 1.8 -0.55 L5.9 0.1 8.7 0.95 12.05 1.25 Q13.0 2.35 14.4 2.95 16.1 3.65 17.45 3.5 16.4 4.2 14.9 4.3 L11.1 4.1 7.5 3.25 3.9 1.85 Q2.2 1.15 0.0 0.75 0.9 6.55 -2.0 8.25 L-5.2 9.95 Q-4.25 9.05 -4.1 8.1 L-4.05 8.1 Q-2.85 6.8 -2.75 4.8 -2.7 4.05 -3.25 3.75 -5.15 2.6 -5.4 0.6 -8.0 2.15 -6.55 4.05 L-6.35 5.1 -7.25 5.5 Q-9.15 6.2 -11.1 6.1 -13.05 5.95 -14.75 5.1 L-16.3 3.95 Q-14.45 0.65 -11.35 -1.15 -6.05 -4.2 -0.2 -1.9 0.7 -3.6 -1.8 -5.2 2.4 -5.3 3.4 -2.25 M15.35 7.25 L15.45 7.35 15.6 7.4 15.8 7.55 15.9 7.6 16.8 8.1 Q17.8 8.5 18.3 10.0 L16.3 10.8 12.8 11.05 11.1 7.8 14.0 8.15 Q15.45 8.05 15.35 7.25 M18.85 13.35 L18.9 13.45 Q19.55 14.95 21.45 14.85 L22.85 14.65 Q21.4 17.4 19.5 17.8 L21.4 19.3 19.9 19.55 15.65 20.05 14.95 16.6 14.2 14.2 Q16.05 12.95 18.1 12.95 18.65 12.95 18.85 13.35 M-7.25 8.3 Q-7.95 9.45 -9.1 10.4 -10.6 11.65 -12.5 12.05 L-12.6 12.1 Q-13.35 11.4 -14.0 11.4 L-17.7 11.7 Q-17.35 10.7 -17.45 9.45 L-17.5 9.25 Q-15.6 8.1 -13.6 7.9 -11.7 7.75 -9.8 7.85 -8.45 7.9 -7.25 8.3 M-13.45 12.3 L-14.7 15.25 Q-15.35 16.45 -16.7 16.95 -18.45 17.65 -20.4 17.65 -22.3 17.65 -23.85 16.8 L-24.55 15.4 -25.25 13.55 -22.15 15.1 -18.95 14.95 Q-18.2 14.6 -17.75 14.6 L-16.1 13.35 -13.45 12.3" fill="#cc9900" fill-rule="evenodd" stroke="none"/>
      <path d="M3.4 -2.25 Q8.05 -3.85 11.05 -0.1 L12.05 1.25 8.7 0.95 5.9 0.1 1.8 -0.55 Q2.35 -1.7 3.4 -2.25 M18.3 10.0 L18.6 11.9 Q18.6 12.7 18.85 13.35 18.65 12.95 18.1 12.95 16.05 12.95 14.2 14.2 L12.8 11.05 16.3 10.8 18.3 10.0 M-6.35 5.1 Q-6.3 6.4 -6.9 7.6 L-7.25 8.3 Q-8.45 7.9 -9.8 7.85 -11.7 7.75 -13.6 7.9 -15.6 8.1 -17.5 9.25 -17.7 6.6 -16.3 3.95 L-14.75 5.1 Q-13.05 5.95 -11.1 6.1 -9.15 6.2 -7.25 5.5 L-6.35 5.1" fill="#febe01" fill-rule="evenodd" stroke="none"/>
      <path d="M17.45 3.5 Q18.95 3.3 20.0 2.0 L19.1 3.9 Q17.9 6.45 15.45 7.25 L15.35 7.25 Q15.45 8.05 14.0 8.15 L11.1 7.8 11.0 7.65 10.4 7.55 8.1 7.0 Q3.25 5.45 0.0 0.75 2.2 1.15 3.9 1.85 L7.5 3.25 11.1 4.1 14.9 4.3 Q16.4 4.2 17.45 3.5 M15.8 7.5 L15.9 7.6 15.8 7.55 15.8 7.5 M22.85 14.65 Q23.7 14.4 23.85 13.9 23.75 15.85 22.8 17.15 21.7 18.55 19.5 17.8 21.4 17.4 22.85 14.65 M21.4 19.3 L22.75 20.2 Q19.8 22.05 15.8 21.9 L15.65 20.05 19.9 19.55 21.4 19.3 M-4.1 8.1 Q-3.85 6.5 -5.7 4.75 L-6.55 4.05 Q-8.0 2.15 -5.4 0.6 -5.15 2.6 -3.25 3.75 -2.7 4.05 -2.75 4.8 -2.85 6.8 -4.05 8.1 L-4.1 8.1 M-12.6 12.1 L-13.45 12.3 -16.1 13.35 -17.75 14.6 Q-18.2 14.6 -18.95 14.95 L-22.15 15.1 Q-18.6 14.05 -17.7 11.7 L-14.0 11.4 Q-13.35 11.4 -12.6 12.1 M-14.7 15.25 Q-15.7 18.1 -16.25 21.5 -19.65 23.75 -23.35 19.9 -22.15 20.2 -20.6 19.35 -22.75 18.4 -23.85 16.8 -22.3 17.65 -20.4 17.65 -18.45 17.65 -16.7 16.95 -15.35 16.45 -14.7 15.25" fill="#a97e01" fill-rule="evenodd" stroke="none"/>
      <path d="M18.85 13.35 L18.9 13.45 M11.1 7.8 L10.4 7.55" fill="none" stroke="#339966" stroke-linecap="round" stroke-linejoin="round" stroke-width="1.0"/>
      <path d="M12.05 1.25 L11.05 -0.1 Q8.05 -3.85 3.4 -2.25 2.4 -5.3 -1.8 -5.2 0.7 -3.6 -0.2 -1.9 -6.05 -4.2 -11.35 -1.15 -14.45 0.65 -16.3 3.95 -17.7 6.6 -17.5 9.25 L-17.45 9.45 Q-17.35 10.7 -17.7 11.7 -18.6 14.05 -22.15 15.1 L-25.25 13.55 -24.55 15.4 -23.85 16.8 Q-22.75 18.4 -20.6 19.35 -22.15 20.2 -23.35 19.9 -19.65 23.75 -16.25 21.5 -15.7 18.1 -14.7 15.25 L-13.45 12.3 -16.1 13.35 -17.75 14.6 M12.05 1.25 Q13.0 2.35 14.4 2.95 16.1 3.65 17.45 3.5 18.95 3.3 20.0 2.0 L19.1 3.9 Q17.9 6.45 15.45 7.25 L15.35 7.25 15.45 7.35 15.6 7.4 15.8 7.5 15.9 7.6 16.8 8.1 Q17.8 8.5 18.3 10.0 L18.6 11.9 Q18.6 12.7 18.85 13.35 M18.9 13.45 Q19.55 14.95 21.45 14.85 L22.85 14.65 Q23.7 14.4 23.85 13.9 23.75 15.85 22.8 17.15 21.7 18.55 19.5 17.8 L21.4 19.3 22.75 20.2 Q19.8 22.05 15.8 21.9 L15.65 20.05 14.95 16.6 14.2 14.2 12.8 11.05 11.1 7.8 11.0 7.65 10.4 7.55 8.1 7.0 Q3.25 5.45 0.0 0.75 0.9 6.55 -2.0 8.25 L-5.2 9.95 Q-4.25 9.05 -4.1 8.1 -3.85 6.5 -5.7 4.75 L-6.55 4.05 -6.35 5.1 Q-6.3 6.4 -6.9 7.6 L-7.25 8.3 Q-7.95 9.45 -9.1 10.4 -10.6 11.65 -12.5 12.05 L-12.6 12.1 -13.45 12.3 M15.6 7.4 L15.8 7.55 15.9 7.6" fill="none" stroke="#ac7900" stroke-linecap="round" stroke-linejoin="round" stroke-width="1.0"/>
    </g>
  </defs>
</svg>
